X:6
T:The Claw in C Major
M:4/4
K:C
L:1/1
%%staves {RH LH}
V:RH clef=treble
V:LH clef=bass
V:RH
"C" [C E G] | "Dm" [D F A] | "Em" [E G B] | "F" [F A C] |
"G" [G B D] | "Am" [A C E] | "Bdim" [B D F] | "C" [C' E G] |
V:LH
[C,E,G,] | [D,F,A,] | [E,G,B,] | [F,A,C,] | 
[G,B,D,] | [A,C,E,] | [B,D,F,] | [C',E,G,] |